src/main/resources/icons/PythonUltimateIcons/icons/com/jetbrains/django/djangoTests.svg

<svg xmlns="http://www.w3.org/2000/svg" width="16" height="16" viewBox="0 0 16 16">
  <g fill="none" fill-rule="evenodd">
    <path fill="#092E20" fill-rule="nonzero" d="M14,8 L10.5,8 L6,12.5 L7.5,14 L3.7,14 C2.76111593,14 2,13.2388841 2,12.3 L2,3.7 C2,2.76111593 2.76111593,2 3.7,2 L12.3,2 C13.2388841,2 14,2.76111593 14,3.7 L14,8 Z"/>
    <path fill="#FFF" fill-rule="nonzero" d="M7.4572619 3.88438889L8.78348413 3.88438889 8.78348413 10.0230556C8.10315079 10.1522222 7.60365079 10.2038889 7.06115079 10.2038889 5.44215079 10.2038889 4.59820635 9.472 4.59820635 8.06816667 4.59820635 6.71616667 5.49387302 5.83777778 6.88031746 5.83777778 7.09559524 5.83777778 7.25920635 5.85505556 7.45731746 5.90661111L7.45731746 3.88438889 7.4572619 3.88438889zM7.4572619 6.97438889C7.3022619 6.92277778 7.17309524 6.90555556 7.00948413 6.90555556 6.3377619 6.90555556 5.95020635 7.31894444 5.95020635 8.04222222 5.95020635 8.7485 6.32053968 9.136 7.00087302 9.136 7.14720635 9.136 7.26781746 9.12738889 7.4572619 9.10166667L7.4572619 6.97438889zM10.8932619 8L10.5 8 9.56437595 8.93562405C9.56622833 8.81671076 9.56709524 8.68865606 9.56709524 8.55033333L9.56709524 5.93238889 10.8932619 5.93238889 10.8932619 8zM9.56709524 3.89144444L10.8932619 3.89144444 10.8932619 5.25216667 9.56709524 5.25216667 9.56709524 3.89144444z"/>
    <g transform="translate(7 9)">
      <polygon fill="#62B543" points="8.5 3.5 5 7 5 0"/>
      <polygon fill="#F26522" points=".5 3.5 4 0 4 7"/>
    </g>
  </g>
</svg>

<svg xmlns="http://www.w3.org/2000/svg" width="16" height="16" viewBox="0 0 16 16"><rect id="frame" width="16" height="16" fill="none"/><g fill="none" fill-rule="evenodd"><path fill="#092E20" fill-rule="nonzero" d="M14 8h-3.5L6 12.5 7.5 14H3.7A1.7 1.7 0 0 1 2 12.3V3.7A1.7 1.7 0 0 1 3.7 2h8.6A1.7 1.7 0 0 1 14 3.7V8z"/><path fill="#FFF" fill-rule="nonzero" d="M7.457 3.884h1.326v6.14c-.68.128-1.18.18-1.722.18-1.619 0-2.463-.732-2.463-2.136 0-1.352.896-2.23 2.282-2.23.216 0 .38.017.577.069V3.884zm0 3.09a1.317 1.317 0 0 0-.448-.068c-.671 0-1.059.413-1.059 1.136 0 .707.37 1.094 1.05 1.094.147 0 .268-.009.457-.034V6.974zM10.893 8H10.5l-.936.936c.002-.12.003-.247.003-.386V5.932h1.326V8zM9.567 3.891h1.326v1.361H9.567v-1.36z"/><path fill="#62B543" d="M15.5 12.5L12 16V9z"/><path fill="#F26522" d="M7.5 12.5L11 9v7z"/></g></svg>
